src/planet.svg

<?xml version="1.0" encoding="utf-8"?>
<!-- Generated by IcoMoon.io -->
<!DOCTYPE svg PUBLIC "-//W3C//DTD SVG 1.1//EN" "http://www.w3.org/Graphics/SVG/1.1/DTD/svg11.dtd">
<svg version="1.1" xmlns="http://www.w3.org/2000/svg" xmlns:xlink="http://www.w3.org/1999/xlink" width="512" height="512" viewBox="0 0 512 512">
<path fill="#000000" d="M96.298 265.705c5.017 83.845 74.589 150.295 159.69 150.295 37.957 0 72.818-13.227 100.25-35.311-39.008-11.135-82.238-26.767-126.676-46.072-48.831-21.213-94.605-44.94-133.264-68.912z"></path>
<path fill="#000000" d="M107.381 196.629c39.911 27.11 92.070 55.13 147.679 79.287 43.591 18.938 87.113 34.555 125.859 45.164 6.496 1.779 12.834 3.406 18.988 4.883 1.685-3.462 3.249-6.994 4.688-10.591 7.341-18.358 11.386-38.393 11.386-59.372 0-3.26-0.109-6.493-0.301-9.705-5.019-83.845-74.59-150.295-159.692-150.295-37.956 0-72.817 13.227-100.248 35.311-18.296 14.729-33.284 33.398-43.67 54.726-1.687 3.462-3.251 6.995-4.689 10.592z"></path>
<path fill="#000000" d="M429.667 284.531c-1.256 11.562-2.377 13.627-5.891 24.695 16.878 12.039 31.032 23.706 41.137 33.938 3.285 3.328 5.875 6.225 7.912 8.702-1.684 0.084-3.557 0.133-5.631 0.133-21.886 0-54.026-5.5-90.501-15.488-39.467-10.806-83.73-26.685-128.008-45.92-58.931-25.6-114.158-55.541-155.51-84.307-19.081-13.275-35.027-26.226-46.113-37.45-3.285-3.328-5.875-6.225-7.912-8.702 1.683-0.084 3.556-0.133 5.632-0.133 15.308 0 35.637 2.694 58.952 7.729 5.825-10.004 6.979-12.701 14.663-21.409-25.734-9.319-51.772-15.797-73.613-18.319-24.403-2.818-40.34 5.521-43.984 17.14-11.074 35.317 94.2 113.578 235.136 174.802 94.562 41.080 181.168 64.058 231.258 64.058 24.565 0 40.338-5.521 43.982-17.141 6.34-20.216-24.211-46.859-81.509-82.328z"></path>
</svg>

<?xml version="1.0" encoding="utf-8"?>
<!-- Generator: Adobe Illustrator 16.2.1, SVG Export Plug-In . SVG Version: 6.00 Build 0)  -->
<!DOCTYPE svg PUBLIC "-//W3C//DTD SVG 1.1//EN" "http://www.w3.org/Graphics/SVG/1.1/DTD/svg11.dtd">
<svg version="1.1" id="Layer_1" xmlns="http://www.w3.org/2000/svg" xmlns:xlink="http://www.w3.org/1999/xlink" x="0px" y="0px"
	 width="512px" height="512px" viewBox="0 0 512 512" enable-background="new 0 0 512 512" xml:space="preserve">
<g>
	<path d="M96.298,265.705C101.315,349.55,170.887,416,255.988,416c37.957,0,72.818-13.227,100.25-35.311
		C317.23,369.554,274,353.922,229.562,334.617C180.731,313.404,134.957,289.677,96.298,265.705z"/>
	<path d="M107.381,196.629c39.911,27.11,92.07,55.13,147.679,79.287c43.591,18.938,87.113,34.555,125.859,45.164
		c6.496,1.779,12.834,3.406,18.988,4.883c1.685-3.462,3.249-6.994,4.688-10.591c7.341-18.358,11.386-38.393,11.386-59.372
		c0-3.26-0.109-6.493-0.301-9.705C410.661,162.45,341.09,96,255.988,96c-37.956,0-72.817,13.227-100.248,35.311
		c-18.296,14.729-33.284,33.398-43.67,54.726C110.383,189.499,108.819,193.032,107.381,196.629z"/>
	<path d="M429.667,284.531c-1.256,11.562-2.377,13.627-5.891,24.695c16.878,12.039,31.032,23.706,41.137,33.938
		c3.285,3.328,5.875,6.225,7.912,8.702c-1.684,0.084-3.557,0.133-5.631,0.133c-21.886,0-54.026-5.5-90.501-15.488
		c-39.467-10.806-83.73-26.685-128.008-45.92c-58.931-25.6-114.158-55.541-155.51-84.307c-19.081-13.275-35.027-26.226-46.113-37.45
		c-3.285-3.328-5.875-6.225-7.912-8.702c1.683-0.084,3.556-0.133,5.632-0.133c15.308,0,35.637,2.694,58.952,7.729
		c5.825-10.004,6.979-12.701,14.663-21.409C92.663,137,66.625,130.522,44.784,128c-24.403-2.818-40.34,5.521-43.984,17.14
		C-10.274,180.457,95,258.718,235.936,319.942C330.498,361.022,417.104,384,467.194,384c24.565,0,40.338-5.521,43.982-17.141
		C517.516,346.643,486.965,320,429.667,284.531z"/>
</g>
</svg>
